svgs/vendetta_manager.svg

<svg width="192" height="192" viewBox="0 0 192 192" fill="none" xmlns="http://www.w3.org/2000/svg">
<path d="M167.995 29H106.587C104.376 29 102.583 30.6075 102.583 32.5906V159.457C102.583 161.44 104.376 163.047 106.587 163.047H167.995C170.207 163.047 172 161.44 172 159.457V32.5906C172 30.6075 170.207 29 167.995 29Z" stroke="black" stroke-width="8"/>
<path d="M87.0236 29H22.3937C21.0717 29 20 30.0172 20 31.272V160.776C20 162.03 21.0717 163.047 22.3937 163.047H87.0236C88.3457 163.047 89.4173 162.03 89.4173 160.776V31.272C89.4173 30.0172 88.3457 29 87.0236 29Z" stroke="black" stroke-width="8"/>
<path d="M54.7087 40.9685C56.6917 40.9685 58.2992 39.6289 58.2992 37.9764C58.2992 36.3239 56.6917 34.9842 54.7087 34.9842C52.7256 34.9842 51.1181 36.3239 51.1181 37.9764C51.1181 39.6289 52.7256 40.9685 54.7087 40.9685Z" fill="black"/>
<path d="M126.52 38.5748H144.472" stroke="black" stroke-width="6" stroke-linecap="round"/>
<mask id="mask0_1_2" style="mask-type:luminance" maskUnits="userSpaceOnUse" x="39" y="46" width="112" height="92">
<path d="M39 46.7861V137.011H150.54V46.7861H39ZM88.5065 48.2097C88.8304 48.2098 89.1872 48.4924 89.3313 49.056C89.5839 49.5005 89.7262 50.1347 89.7989 50.4047C89.8424 50.5665 89.8854 50.7289 89.9279 50.891C90.2501 50.8082 90.5734 50.7298 90.9024 50.739C90.9188 50.7395 90.9303 50.7438 90.9392 50.753C91.3068 50.7626 91.7011 51.1368 91.7709 51.875C91.7856 52.031 91.8023 52.1868 91.8193 52.3425C91.8119 52.16 91.8038 51.977 91.7825 51.7956C91.717 51.2352 91.9825 50.9355 92.2639 50.9354C92.5122 50.9351 92.7741 51.1703 92.8329 51.6646C92.8628 51.9157 92.8724 52.1672 92.8813 52.4197C92.8862 52.5708 92.8904 52.7219 92.8928 52.8732C93.0288 52.6311 93.2188 52.4991 93.3974 52.4875C93.4694 52.4827 93.538 52.4982 93.6001 52.5296C93.5628 52.2051 93.5176 51.8817 93.4826 51.5571C93.4247 51.0188 93.665 50.7183 93.9295 50.697C93.99 50.6922 94.0516 50.703 94.1115 50.7274C94.1115 50.7238 94.1116 50.7202 94.1115 50.7154C94.1082 50.1786 94.3937 49.9109 94.6713 49.9112C94.8988 49.9115 95.1194 50.0916 95.1713 50.4513C95.28 50.2435 95.4089 50.0958 95.5467 50.0819C95.5612 50.0807 95.5761 50.0811 95.5905 50.0819C95.7934 50.0927 95.9769 50.3265 96.0144 50.7995C96.0214 50.8882 96.0335 50.9748 96.0351 51.0637C96.0387 51.2268 96.0257 51.3914 96.0281 51.5546C96.0292 51.6802 96.0405 51.8054 96.0442 51.9309C96.0525 51.6366 96.0588 51.3416 96.0672 51.0473H96.0696C96.0838 50.5496 96.3219 50.2934 96.5694 50.2713C96.85 50.2461 97.1408 50.523 97.1246 51.087C97.1107 51.5729 97.0981 52.0598 97.0855 52.5457C97.1072 52.541 97.1277 52.5282 97.15 52.5271C97.3589 52.5175 97.5846 52.6772 97.6955 52.9992V52.4569C97.6955 51.9607 97.9267 51.7065 98.1732 51.6738C98.1803 51.6183 98.1862 51.5634 98.1933 51.5078C97.8583 51.4371 97.7356 51.3475 98.1909 51.2461L98.198 51.2437C98.198 51.1672 98.2062 51.1117 98.251 51.1432C98.2782 51.1626 98.2923 51.1912 98.2994 51.2226L99.6546 50.921C99.6546 50.927 99.6582 50.9334 99.6594 50.9397C99.6546 50.836 99.6476 50.7325 99.6429 50.6288C99.6629 50.5699 99.6759 50.5049 99.6865 50.4371C99.6664 50.3254 99.5898 50.1342 99.6747 50.1613C99.6889 50.1661 99.7018 50.1708 99.716 50.1753C99.7467 49.8682 99.782 49.5631 100.03 49.474C100.19 49.4162 100.329 49.3858 100.448 49.3782C101.242 49.3275 101.189 50.2656 101.207 50.7644C101.443 50.7955 101.582 50.9165 101.668 51.0846C101.662 50.9117 101.659 50.7386 101.652 50.5657C101.624 49.8151 101.985 49.427 102.358 49.4155C102.732 49.4035 103.12 49.7682 103.146 50.5189C103.253 53.5059 103.325 56.4928 103.37 59.4813C103.401 62.7985 103.371 66.1162 103.287 69.4324C103.278 69.7483 103.269 70.0656 103.259 70.3815C103.245 70.8439 103.238 71.3057 103.213 71.7676C103.207 71.8727 103.279 72.0374 103.186 72.0833C102.891 72.2278 102.702 72.3195 102.527 72.4011C102.481 75.3898 102.475 78.3793 102.483 81.3682C102.493 84.3902 102.472 87.4143 102.681 90.4311C102.731 91.1506 102.799 91.8674 102.858 92.5863C103.3 97.2455 103.652 101.913 103.992 106.581C104.146 108.812 104.348 111.039 104.425 113.274C104.472 114.614 104.46 114.778 104.458 116.109C104.45 116.484 104.434 116.857 104.425 117.232C104.584 118.161 104.736 119.091 104.879 120.023C105.099 121.58 105.268 123.142 105.526 124.693C105.625 125.285 105.72 125.879 105.812 126.473C105.946 127.328 105.511 127.752 105.074 127.687C104.783 127.845 104.401 127.737 104.163 127.316C104.162 127.415 104.157 127.514 104.156 127.613C104.158 128.37 104.126 129.127 104.146 129.885C104.15 129.964 104.154 130.043 104.158 130.121C104.2 131.061 103.628 131.438 103.179 131.219C103.186 131.48 103.192 131.74 103.192 132.001C103.193 132.206 103.364 132.54 103.177 132.615C102.986 132.693 102.791 132.761 102.596 132.823C102.515 136.14 99.1982 136.38 98.4563 133.095C98.0387 132.937 97.6365 132.725 97.2673 132.496C97.0073 132.335 96.848 132.063 96.7168 131.769C93.6274 132.143 93.864 132.185 93.4202 130.346C93.3778 130.152 93.3356 129.958 93.2934 129.764C92.9175 129.818 92.5383 129.855 92.1577 129.885C91.4666 131.115 89.9212 131.195 88.9372 129.794C88.942 131.036 87.6458 131.149 87.4536 129.754C87.4462 129.701 87.4403 129.647 87.4328 129.593C87.0527 129.66 86.6189 129.332 86.5366 128.562C86.4558 127.804 86.4958 128.2 86.4192 127.374C86.2317 125.422 86.0304 123.469 85.834 121.517C85.6394 119.558 85.4555 117.599 85.3457 115.635C85.2869 114.368 85.2308 113.099 85.1775 111.832C85.1352 110.985 85.0807 110.139 85.0047 109.295C84.9348 108.519 85.3005 108.109 85.6889 108.103C85.6795 107.953 85.6683 107.803 85.659 107.652C85.5592 105.657 85.4444 103.663 85.4217 101.666C85.4149 99.6475 85.4457 97.6291 85.4355 95.6112C85.4075 93.8261 85.3551 92.0412 85.3779 90.2558C85.4134 87.8668 85.502 85.4777 85.6544 83.0933C85.8575 79.8397 86.0732 76.587 86.2004 73.3292C86.2787 71.436 86.3406 69.541 86.3731 67.6464C86.2195 67.4164 86.1007 67.1612 86.0138 66.8493C85.8922 66.3578 86.0548 65.9028 86.2188 65.4467C86.3775 65.0115 86.3629 64.5497 86.3592 64.0933C86.267 62.7809 86.1694 61.4701 86.1267 60.1545C86.068 58.4326 86.1281 56.7095 86.2326 54.9907C86.29 54.1783 86.261 54.5702 86.3178 53.8219C86.3453 53.4597 86.4547 53.192 86.6012 53.0154C86.6263 52.2481 86.6586 51.4797 86.7002 50.7129C86.7179 50.4505 86.7341 50.1898 86.7532 49.9274C86.7638 49.7825 86.7968 48.3904 87.1725 48.4384C87.532 48.4844 87.783 48.542 87.9603 48.616C88.0734 48.3454 88.2821 48.2097 88.5065 48.2097ZM98.2864 51.5268V51.5291C98.2959 51.53 98.3053 51.5299 98.3159 51.5315C98.3065 51.5303 98.2959 51.5291 98.2864 51.5268ZM99.6936 51.6062C99.69 51.6203 99.6865 51.634 99.6841 51.6482C99.6889 51.6486 99.6912 51.6479 99.6959 51.6482C99.6947 51.6342 99.6947 51.6202 99.6936 51.6062ZM99.6794 51.6693C99.6617 51.7936 99.6464 51.9184 99.6334 52.0433C99.5992 52.3681 99.5756 52.6943 99.5626 53.0204C99.624 53.0465 99.6877 53.0725 99.7561 53.1046C99.7679 53.1105 99.7797 53.1181 99.7903 53.1256C99.7573 52.6414 99.7242 52.1562 99.6959 51.6717C99.69 51.6713 99.6865 51.6693 99.6794 51.6693ZM97.7002 53.7871C97.699 53.7998 97.7002 53.7919 97.6979 53.8058C97.6884 53.9204 97.7038 54.0364 97.712 54.1518C97.7085 54.0302 97.7038 53.9087 97.7002 53.7871ZM95.3255 61.6649C95.3251 61.6945 95.3232 61.7242 95.3232 61.7537C95.3338 61.7361 95.3468 61.7186 95.36 61.7023C95.3494 61.6886 95.3365 61.6784 95.3255 61.6649ZM95.7287 65.6013C95.6483 65.6073 95.5673 65.6133 95.4868 65.62C95.488 65.8404 95.472 66.0505 95.3901 66.1858C95.2892 66.3519 95.167 66.5757 94.9755 66.5925C94.255 66.6555 94.1991 66.268 93.9826 65.8164C93.959 65.7652 93.9484 65.7459 93.9295 65.7065C93.7716 65.8824 93.5403 65.9594 93.2684 65.9403C93.2663 66.1233 93.2632 66.3016 93.2546 66.4686C93.2402 66.7454 93.1964 67.0182 93.1671 67.2938C93.1116 67.49 93.1504 67.7462 93.0011 67.8828C92.8033 68.0641 92.562 68.2617 92.3054 68.3433C92.0927 68.5268 91.8137 68.6369 91.5797 68.7968C91.2644 68.6071 90.9004 68.4856 90.6353 68.2288C90.3871 67.9885 90.0173 66.9595 89.9187 66.6626C89.826 66.3834 89.7662 66.0973 89.693 65.814C89.6716 66.858 89.646 67.9021 89.624 68.9464C89.6216 69.0084 89.6032 69.7608 89.5641 69.8627C89.2234 70.7441 88.9259 70.6887 87.9537 69.8767C87.8741 69.8103 87.8422 69.7105 87.8248 69.6033C87.7902 70.8662 87.748 72.1302 87.6957 73.3925C87.5682 76.6612 87.3512 79.925 87.1474 83.1894C86.9968 85.5494 86.9081 87.9124 86.8733 90.2771C86.8511 92.047 86.9032 93.8185 86.9308 95.5881C86.9419 97.6123 86.9104 99.6345 86.917 101.658C86.9401 103.632 87.0557 105.604 87.1543 107.576C87.2433 108.999 87.3409 110.423 87.4377 111.846C87.6323 111.153 87.927 110.528 88.38 110.423C88.5984 110.371 88.794 110.333 88.9789 110.296C89.0189 110.078 89.0671 109.889 89.1263 109.749C89.3434 109.237 89.454 108.468 89.9833 108.321C90.8821 108.07 91.4965 107.953 91.9415 107.956C92.9202 107.965 93.0777 108.559 93.6278 109.592C93.9055 110.715 94.1035 111.856 94.2843 113.001C97.5563 111.257 97.5068 112.685 97.6707 115.056C97.968 115.061 98.2676 115.056 98.5695 115.051C99.4034 114.696 100.321 114.502 101.221 114.345C101.192 114.222 101.16 114.098 101.131 113.975C101.031 113.543 100.796 112.49 100.714 112C100.683 111.818 100.668 111.635 100.644 111.453C100.552 110.708 100.861 110.339 101.226 110.34C101.377 110.342 101.538 110.407 101.683 110.537C101.63 109.838 101.966 109.425 102.35 109.426C102.472 109.427 102.596 109.469 102.711 109.555C102.641 108.601 102.568 107.647 102.502 106.694C102.161 102.031 101.81 97.3672 101.368 92.7126C101.308 91.9796 101.239 91.2467 101.188 90.513C100.979 87.4698 100.997 84.4215 100.987 81.373C100.978 78.1025 100.984 74.8322 101.043 71.562C101.058 70.8023 101.075 70.0426 101.094 69.2829C101.051 68.9726 101 68.6641 100.965 68.3525C100.632 68.5355 100.3 68.774 99.9672 68.6588C99.5886 68.5277 99.5414 67.9648 99.3987 67.5859C99.2996 67.3252 99.1545 66.5646 99.0437 65.9378C99.0248 66.0132 99.0012 66.0867 98.9835 66.1622C98.7629 66.1658 98.5341 66.2095 98.3088 66.2394C98.3088 66.2931 98.3112 66.3469 98.3112 66.4007V66.4055C98.323 66.4699 98.3254 66.5301 98.3112 66.5831C98.3112 66.6135 98.3112 66.6439 98.3112 66.6743C98.3077 66.8513 98.4752 67.1832 98.2994 67.205C97.9715 67.2464 97.6141 67.2267 97.2881 67.1279H97.2857C97.1255 67.1582 96.9647 67.1732 96.8066 67.1723C96.6989 67.1717 96.7375 67.0254 96.7767 66.8801C96.772 66.8765 96.7672 66.8741 96.7629 66.8705C96.5608 66.7223 96.6972 66.3836 96.7145 66.1155C96.4784 66.72 95.8011 66.6177 95.7377 65.7298C95.7341 65.687 95.7322 65.6442 95.7287 65.6013ZM99.7879 67.7449C99.6546 67.8125 99.6075 67.8754 99.749 67.9437C99.7667 67.8475 99.775 67.8093 99.7879 67.7449Z" fill="white"/>
</mask>
<g mask="url(#mask0_1_2)">
<path d="M75.9925 120.14L70.6276 131.028C63.7939 128.139 56.7174 125.248 49.1942 120.275C46.5708 118.541 44.98 115.595 44.917 112.417C44.5897 96.1097 48.36 79.7152 57.9064 62.3817C59.1557 60.113 61.2375 58.4498 63.6517 57.5802C69.411 55.5061 73.3208 53.9028 80.0163 52.7704L84.0401 60.2559C84.0401 60.2559 88.0638 58.8949 94.7701 58.8949C101.476 58.8949 105.5 60.2559 105.5 60.2559L109.523 52.7704C116.219 53.9028 120.13 55.5061 125.888 57.5802C128.302 58.4498 130.384 60.113 131.633 62.3817C141.18 79.7152 144.95 96.1097 144.624 112.417C144.56 115.595 142.969 118.541 140.346 120.275C132.822 125.248 125.746 128.139 118.912 131.028L113.548 120.14M67.9451 114.696C67.9451 114.696 81.3576 121.501 94.7701 121.501C108.182 121.501 121.594 114.696 121.594 114.696" stroke="black" stroke-width="10" stroke-linecap="round" stroke-linejoin="round"/>
</g>
<path d="M69.4899 99.8731C72.7949 99.8731 75.4741 96.7816 75.4741 92.9681C75.4741 89.1547 72.7949 86.0632 69.4899 86.0632C66.1849 86.0632 63.5056 89.1547 63.5056 92.9681C63.5056 96.7816 66.1849 99.8731 69.4899 99.8731Z" fill="black"/>
<path d="M118.561 99.8731C121.865 99.8731 124.545 96.7816 124.545 92.9681C124.545 89.1547 121.865 86.0632 118.561 86.0632C115.256 86.0632 112.576 89.1547 112.576 92.9681C112.576 96.7816 115.256 99.8731 118.561 99.8731Z" fill="black"/>
</svg>

<svg width="192" height="192" viewBox="0 0 192 192" fill="none" xmlns="http://www.w3.org/2000/svg"><path d="M167.995 29h-61.408c-2.211 0-4.004 1.608-4.004 3.59v126.867c0 1.983 1.793 3.59 4.004 3.59h61.408c2.212 0 4.005-1.607 4.005-3.59V32.591c0-1.983-1.793-3.591-4.005-3.591ZM87.024 29h-64.63C21.072 29 20 30.017 20 31.272v129.504c0 1.254 1.072 2.271 2.394 2.271h64.63c1.322 0 2.393-1.017 2.393-2.271V31.272c0-1.255-1.071-2.272-2.393-2.272Z" stroke="#000" stroke-width="8"/><path d="M54.709 40.968c1.983 0 3.59-1.34 3.59-2.992s-1.607-2.992-3.59-2.992c-1.983 0-3.59 1.34-3.59 2.992 0 1.653 1.607 2.992 3.59 2.992Z" fill="#000"/><path d="M126.52 38.575h17.952" stroke="#000" stroke-width="6" stroke-linecap="round"/><mask id="a" style="mask-type:luminance" maskUnits="userSpaceOnUse" x="39" y="46" width="112" height="92"><path d="M39 46.786v90.225h111.54V46.786H39Zm49.507 1.424c.323 0 .68.282.824.846.253.445.395 1.079.468 1.349l.129.486c.322-.083.645-.161.974-.152.017 0 .028.005.037.014.368.01.762.384.832 1.122l.048.468a7.186 7.186 0 0 0-.037-.547c-.065-.56.2-.86.482-.86.248 0 .51.234.569.729.03.25.04.502.048.755.005.15.01.302.012.453.136-.242.326-.374.504-.386.072-.004.141.011.203.043-.037-.325-.082-.648-.117-.973-.058-.538.182-.839.447-.86a.398.398 0 0 1 .181.03v-.012c-.003-.536.283-.804.56-.804.228 0 .448.18.5.54.109-.208.238-.355.376-.37a.32.32 0 0 1 .044 0c.202.012.386.245.423.718.007.09.02.176.021.265.004.163-.01.327-.007.49.001.126.012.251.016.377l.023-.884h.003c.014-.497.252-.754.5-.776.28-.025.57.252.555.816l-.04 1.459c.022-.005.043-.018.065-.019.209-.01.435.15.545.472v-.542c0-.496.232-.75.478-.783l.02-.166c-.335-.07-.457-.16-.002-.262l.007-.002c0-.077.008-.132.053-.1.027.019.041.047.048.079l1.356-.302c0 .006.003.012.004.019-.004-.104-.011-.207-.016-.311.02-.06.033-.124.043-.192-.02-.112-.096-.303-.011-.276l.041.014c.03-.307.066-.612.314-.701.16-.058.299-.088.418-.096.794-.05.741.888.759 1.386a.566.566 0 0 1 .461.32c-.006-.172-.009-.345-.016-.518-.028-.75.333-1.139.706-1.15.374-.012.762.352.788 1.103.107 2.987.179 5.974.224 8.962.031 3.317.001 6.635-.083 9.951l-.028.95c-.014.462-.021.924-.046 1.386-.006.105.066.27-.027.315a38.62 38.62 0 0 1-.659.318 496.37 496.37 0 0 0-.044 8.967c.01 3.022-.011 6.046.198 9.063.05.72.118 1.436.177 2.155.442 4.66.794 9.327 1.134 13.995.154 2.231.356 4.458.433 6.693.047 1.34.035 1.504.033 2.835-.008.375-.024.748-.033 1.123.159.929.311 1.859.454 2.791.22 1.557.389 3.119.647 4.67.099.592.194 1.186.286 1.78.134.855-.301 1.279-.738 1.214-.291.158-.673.05-.911-.371-.001.099-.006.198-.007.297.002.757-.03 1.514-.01 2.272l.012.236c.042.94-.53 1.317-.979 1.098.007.261.013.521.013.782.001.205.172.539-.015.614a7.738 7.738 0 0 1-.581.208c-.081 3.317-3.398 3.557-4.14.272a6.952 6.952 0 0 1-1.189-.599c-.26-.161-.419-.433-.55-.727-3.09.374-2.853.416-3.297-1.423l-.127-.582c-.376.054-.755.091-1.135.121-.691 1.23-2.237 1.31-3.22-.091.004 1.242-1.292 1.355-1.484-.04-.008-.053-.014-.107-.021-.161-.38.067-.814-.261-.896-1.031-.081-.758-.041-.362-.118-1.188-.187-1.952-.389-3.905-.585-5.857-.195-1.959-.379-3.918-.488-5.882a879.108 879.108 0 0 1-.169-3.803 63.727 63.727 0 0 0-.172-2.537c-.07-.776.296-1.186.684-1.192l-.03-.451c-.1-1.995-.215-3.989-.237-5.986-.007-2.019.024-4.037.014-6.055-.029-1.785-.08-3.57-.058-5.355.035-2.39.124-4.778.276-7.163.204-3.253.42-6.506.546-9.764.079-1.893.14-3.788.173-5.683a2.71 2.71 0 0 1-.36-.797c-.12-.491.042-.946.206-1.402.159-.436.144-.897.14-1.354-.092-1.312-.19-2.623-.232-3.939-.059-1.721.001-3.445.106-5.163.057-.813.028-.42.085-1.17.027-.361.137-.629.283-.806.025-.767.058-1.535.1-2.302.017-.263.033-.523.052-.786.01-.145.044-1.537.42-1.489.359.046.61.104.787.178.113-.27.322-.406.547-.406Zm9.78 3.317v.002c.009.001.018 0 .029.002-.01 0-.02-.002-.03-.004Zm1.407.08c-.004.013-.008.027-.01.041h.012l-.002-.042Zm-.015.062a15.067 15.067 0 0 0-.117 1.351c.062.027.126.053.194.085a.27.27 0 0 1 .034.02c-.033-.484-.066-.969-.094-1.453-.006 0-.01-.003-.017-.003ZM97.7 53.787l-.002.019c-.01.114.006.23.014.346l-.012-.365Zm-2.374 7.878c0 .03-.003.06-.003.089a.465.465 0 0 1 .037-.052c-.01-.013-.023-.024-.034-.037Zm.403 3.936-.242.019c.001.22-.015.43-.097.566-.1.166-.223.39-.415.406-.72.064-.776-.324-.992-.776-.024-.05-.035-.07-.053-.11-.158.176-.39.253-.662.234-.002.183-.005.362-.013.529-.015.276-.059.55-.088.825-.055.196-.017.452-.166.589-.198.181-.439.379-.696.46-.212.184-.491.294-.725.454-.316-.19-.68-.311-.945-.568-.248-.24-.618-1.27-.716-1.566-.093-.28-.153-.566-.226-.849-.021 1.044-.047 2.088-.069 3.132-.002.062-.02.815-.06.917-.34.881-.638.826-1.61.014-.08-.067-.112-.166-.13-.274a270.558 270.558 0 0 1-.128 3.79c-.128 3.268-.345 6.532-.549 9.796-.15 2.36-.239 4.723-.274 7.088-.022 1.77.03 3.541.058 5.311.01 2.024-.02 4.047-.014 6.07.023 1.974.139 3.946.237 5.918.09 1.423.187 2.847.284 4.27.194-.693.489-1.318.942-1.423.218-.052.414-.09.599-.127.04-.218.088-.407.147-.547.217-.512.328-1.281.857-1.428.9-.251 1.513-.368 1.959-.365.978.009 1.136.603 1.686 1.636.278 1.123.475 2.264.656 3.409 3.272-1.744 3.223-.316 3.387 2.055.297.005.597 0 .898-.005.834-.355 1.752-.549 2.652-.706l-.09-.37c-.1-.432-.335-1.485-.417-1.975-.031-.182-.046-.365-.07-.547-.092-.745.217-1.114.582-1.113a.708.708 0 0 1 .457.197c-.053-.699.283-1.112.667-1.111a.609.609 0 0 1 .361.129c-.07-.954-.143-1.908-.209-2.861-.341-4.663-.692-9.327-1.134-13.981-.06-.733-.129-1.466-.18-2.2-.209-3.043-.191-6.092-.201-9.14-.009-3.27-.003-6.54.056-9.811.015-.76.032-1.52.051-2.28-.043-.31-.094-.618-.129-.93-.333.183-.665.422-.998.307-.378-.131-.426-.694-.568-1.073-.1-.26-.245-1.021-.355-1.648-.02.075-.043.149-.06.224-.221.004-.45.047-.675.077l.002.162v.005a.408.408 0 0 1 0 .177v.091c-.003.177.164.51-.012.531a2.476 2.476 0 0 1-1.01-.077h-.003c-.16.03-.321.045-.48.044-.107 0-.069-.147-.03-.292l-.013-.01c-.202-.148-.066-.486-.049-.755-.236.605-.913.503-.976-.385l-.01-.129Zm4.059 2.144c-.133.067-.18.13-.039.199l.039-.2Z" fill="#fff"/></mask><g mask="url(#a)"><path d="m75.993 120.14-5.365 10.888c-6.834-2.889-13.91-5.78-21.434-10.753-2.623-1.734-4.214-4.68-4.277-7.858-.327-16.307 3.443-32.702 12.99-50.035 1.249-2.269 3.33-3.932 5.745-4.802 5.759-2.074 9.669-3.677 16.364-4.81l4.024 7.486s4.024-1.361 10.73-1.361 10.73 1.36 10.73 1.36l4.023-7.485c6.696 1.133 10.607 2.736 16.365 4.81 2.414.87 4.496 2.533 5.745 4.802 9.547 17.333 13.317 33.728 12.991 50.035-.064 3.178-1.655 6.124-4.278 7.858-7.524 4.973-14.6 7.864-21.434 10.753l-5.364-10.888m-45.603-5.444s13.413 6.805 26.825 6.805c13.412 0 26.824-6.805 26.824-6.805" stroke="#000" stroke-width="10" stroke-linecap="round" stroke-linejoin="round"/></g><path d="M69.49 99.873c3.305 0 5.984-3.091 5.984-6.905 0-3.813-2.68-6.905-5.984-6.905-3.305 0-5.984 3.092-5.984 6.905 0 3.814 2.679 6.905 5.984 6.905ZM118.561 99.873c3.304 0 5.984-3.091 5.984-6.905 0-3.813-2.68-6.905-5.984-6.905-3.305 0-5.985 3.092-5.985 6.905 0 3.814 2.68 6.905 5.985 6.905Z" fill="#000"/></svg>
